brandFactory_export/1.Light/Movil Play_1Light.svg

<?xml version="1.0" encoding="UTF-8"?>
<svg width="24px" height="24px" viewBox="0 0 24 24" version="1.1" xmlns="http://www.w3.org/2000/svg" xmlns:xlink="http://www.w3.org/1999/xlink">
    <title>1.Light/Movil Play_1Light</title>
    <g id="Symbols" stroke="none" stroke-width="1" fill="none" fill-rule="evenodd">
        <g id="1.Light/Movil-Play_1Light" fill="#5CB615" fill-rule="nonzero">
            <path d="M22.6386555,19.3848739 L22.6386555,4.31596639 C22.6386555,3.18319328 22.3831933,2.36638655 21.8420168,1.82521008 C21.3008403,1.28403361 20.4941176,1.01848739 19.3512605,1.01848739 L11.8218487,1.01848739 C10.6991597,1.01848739 9.88235294,1.29411765 9.34117647,1.84537815 C8.8,2.39663866 8.53445378,3.20336134 8.53445378,4.31596639 L8.53445378,4.89747899 C12.2453782,5.33109244 14.3731092,7.62689076 14.3731092,12.0067227 C14.3731092,16.3865546 12.2453782,18.6823529 8.54453782,19.1159664 L8.54453782,19.8151261 C8.60168067,20.7193277 8.85714286,21.4117647 9.34117647,21.8722689 C9.87226891,22.4134454 10.6890756,22.6722689 11.8218487,22.6722689 L19.3512605,22.6722689 C20.4941176,22.6722689 21.3008403,22.4168067 21.8420168,21.8722689 C22.3831933,21.3411765 22.6386555,20.5243697 22.6386555,19.3848739 Z M7.18655462,18.2117647 C11.3579832,18.2117647 13.3882353,16.1815126 13.3882353,12.0067227 C13.3882353,7.83193277 11.3579832,5.80168067 7.18655462,5.80168067 C3.01176471,5.80168067 0.98487395,7.83193277 0.98487395,12.0067227 C0.98487395,16.1815126 3.01176471,18.2117647 7.18655462,18.2117647 L7.18655462,18.2117647 Z M22.5411765,1.13613445 C23.2705882,1.86554622 23.6235294,2.90756303 23.6235294,4.31596639 L23.6235294,19.3848739 C23.6235294,20.8033613 23.2705882,21.8453782 22.5310924,22.5747899 C21.8016807,23.3042017 20.7596639,23.6605042 19.3512605,23.6605042 L11.8218487,23.6605042 C10.4134454,23.6605042 9.38151261,23.3042017 8.64201681,22.5781513 C7.99327731,21.9394958 7.63697479,21.0420168 7.55966387,19.8588235 L7.55966387,19.189916 C7.43193277,19.189916 7.31428571,19.2 7.18655462,19.2 C2.6487395,19.1966387 0,16.9109244 0,12.0067227 C0,7.11260504 2.6487395,4.81680672 7.18655462,4.81680672 C7.31428571,4.81680672 7.43193277,4.82689076 7.54957983,4.82689076 L7.54957983,4.31260504 C7.54957983,2.92436975 7.90252101,1.88907563 8.64201681,1.14957983 C9.38151261,0.403361345 10.4235294,0.0268907563 11.8218487,0.0268907563 L19.3512605,0.0268907563 C20.7697479,0.0336134454 21.8117647,0.396638655 22.5411765,1.13613445 Z M5.5697479,14.4537815 L9.79831933,12.010084 L5.5697479,9.56638655 L5.5697479,14.4537815 Z M11.0319328,11.5831933 C11.2672269,11.7210084 11.3478992,12.0201681 11.210084,12.2554622 C11.1663866,12.3294118 11.1058824,12.389916 11.0319328,12.4336134 L5.32436975,15.7310924 C5.17310924,15.8184874 4.98487395,15.8184874 4.83361345,15.7310924 C4.68235294,15.6436975 4.58823529,15.4823529 4.58823529,15.3042017 L4.58823529,8.71596639 C4.58823529,8.44369748 4.81008403,8.22521008 5.0789916,8.22521008 C5.16638655,8.22521008 5.25042017,8.2487395 5.32436975,8.29243697 C5.32436975,8.28907563 11.0319328,11.5831933 11.0319328,11.5831933 L11.0319328,11.5831933 Z M14.6453782,20.1277311 C14.4235294,19.902521 14.312605,19.589916 14.312605,19.1966387 C14.312605,18.3932773 14.789916,17.9159664 15.589916,17.9159664 C16.389916,17.9159664 16.8672269,18.3966387 16.8672269,19.1966387 C16.8672269,19.589916 16.7563025,19.902521 16.5344538,20.1277311 C16.3092437,20.3563025 15.9831933,20.4773109 15.589916,20.4773109 C15.1966387,20.4806723 14.8705882,20.3596639 14.6453782,20.1277311 Z" id="Movil-Play_1Light"></path>
        </g>
    </g>
</svg>

<svg width="24" height="24" viewBox="0 0 24 24" xmlns="http://www.w3.org/2000/svg"><path d="M22.639 19.385V4.316c0-1.133-.256-1.95-.797-2.49-.541-.542-1.348-.808-2.49-.808h-7.53c-1.123 0-1.94.276-2.48.827-.542.552-.808 1.358-.808 2.471v.581c3.711.434 5.84 2.73 5.84 7.11 0 4.38-2.129 6.675-5.83 7.109v.7c.058.903.313 1.596.797 2.056.531.541 1.348.8 2.48.8h7.53c1.143 0 1.95-.255 2.491-.8.541-.53.797-1.348.797-2.487zM7.187 18.212c4.171 0 6.201-2.03 6.201-6.205 0-4.175-2.03-6.205-6.201-6.205-4.175 0-6.202 2.03-6.202 6.205 0 4.175 2.027 6.205 6.202 6.205zM22.54 1.136c.73.73 1.083 1.772 1.083 3.18v15.069c0 1.418-.353 2.46-1.093 3.19-.73.73-1.771 1.086-3.18 1.086h-7.53c-1.408 0-2.44-.357-3.179-1.083-.649-.639-1.005-1.536-1.082-2.72v-.668c-.128 0-.246.01-.373.01C2.649 19.197 0 16.91 0 12.007c0-4.894 2.649-7.19 7.187-7.19.127 0 .245.01.363.01v-.514c0-1.389.353-2.424 1.092-3.163.74-.747 1.782-1.123 3.18-1.123h7.53c1.418.007 2.46.37 3.19 1.11zM5.57 14.454l4.228-2.444L5.57 9.566v4.888zm5.462-2.87a.49.49 0 010 .85L5.324 15.73a.492.492 0 01-.736-.427V8.716a.491.491 0 01.736-.424c0-.003 5.708 3.291 5.708 3.291zm3.613 8.544c-.221-.225-.332-.538-.332-.931 0-.804.477-1.281 1.277-1.281.8 0 1.277.48 1.277 1.28 0 .394-.11.707-.333.932-.225.228-.55.35-.944.35-.393.003-.72-.118-.945-.35z" fill="#5CB615" fill-rule="nonzero"/></svg>
